src/images/dosen/dosen-female-1.svg

<svg width="120" height="120" viewBox="0 0 120 120" fill="none" xmlns="http://www.w3.org/2000/svg">
<mask id="mask0" mask-type="alpha" maskUnits="userSpaceOnUse" x="0" y="0" width="120" height="120">
<path d="M120 60.0002C120 93.1373 93.1369 120 59.9999 120C26.863 120 0 93.1373 0 60.0002C0 26.8632 26.863 0 59.9999 0C93.1369 0 120 26.8632 120 60.0002Z" fill="#76B2A4"/>
</mask>
<g mask="url(#mask0)">
<circle cx="60" cy="60" r="60" fill="#EF3F51"/>
<path d="M60.1546 31.1111C44.0344 31.1111 39.872 42.6578 40.2114 55.7627C40.5511 68.866 38.5596 79.3215 38.5596 79.3215L60.1546 79.4806V31.1111Z" fill="#431616"/>
<path d="M51.3324 86.4753C46.6271 91.4746 40.9214 93.7808 32.815 94.9579C23.0577 96.3743 21.7778 105.511 21.7778 108.051C21.7778 110.59 21.7778 120 21.7778 120H60.1547V86.4753H51.3324Z" fill="#ECEBE9"/>
<path d="M60.1546 75.7237H51.1803V87.3312C51.1803 89.0552 54.0263 94.5229 60.1546 94.5229V75.7237Z" fill="#E9BA98"/>
<path d="M60.1546 39.1978C46.9214 39.1978 44.9607 48.7654 44.9607 60.5676C44.9607 72.6537 55.1351 81.937 60.1546 81.937V39.1978Z" fill="#EBCCAF"/>
<path d="M44.6637 58.8521C43.7321 55.3723 42.458 55.3723 41.9186 56.2546C41.3796 57.1369 43.242 60.5677 43.2909 63.3613C43.3403 66.1553 44.1692 66.5762 45.2005 65.5568C46.2321 64.5379 44.6637 58.8521 44.6637 58.8521Z" fill="#EBCCAF"/>
<path d="M47.292 89.9546L47.0351 89.6271L47.3022 89.948C47.2986 89.9502 47.2951 89.9524 47.292 89.9546Z" fill="#64988E"/>
<path d="M57.7044 103.238L47.2921 89.9548C47.2951 89.9526 47.2987 89.9503 47.3022 89.9481L57.7044 102.456L60.1547 94.523L57.7044 103.238Z" fill="#CBC8C4"/>
<path d="M51.1803 86.5868L47.0351 89.6271L57.7044 102.456L60.1546 94.5228L51.1803 86.5868Z" fill="#F7F5F5"/>
<path d="M60.1546 73.1892C58.6184 73.1892 58.0886 73.1892 55.2545 73.1892C55.2545 73.1892 57.9555 71.8557 58.9361 71.849C59.6068 71.8442 59.6663 72.2765 60.1546 72.2765V73.1892Z" fill="#E3527C"/>
<path d="M60.1546 75.1283C57.8238 75.1283 57.659 74.1588 56.1681 73.574C55.5344 73.3258 55.2545 73.1892 55.2545 73.1892H60.1546V75.1283Z" fill="#AF2751"/>
<path d="M45.2741 65.2505C45.2741 65.6991 44.911 66.0623 44.4623 66.0623C44.0142 66.0623 43.6506 65.6991 43.6506 65.2505C43.6506 64.8023 44.0142 64.4387 44.4623 64.4387C44.911 64.4387 45.2741 64.8023 45.2741 65.2505Z" fill="#CD4C69"/>
<path d="M60.1547 31.1111C76.2749 31.1111 80.4373 42.6578 80.0979 55.7627C79.7586 68.866 81.7497 79.3215 81.7497 79.3215L60.1547 79.4806V31.1111Z" fill="#381514"/>
<path d="M68.977 86.4753C73.6823 91.4746 79.388 93.7808 87.4946 94.9579C97.2521 96.3743 98.5318 105.511 98.5318 108.051C98.5318 110.59 98.5318 120 98.5318 120H60.1547V86.4753H68.977Z" fill="#DFDEDB"/>
<path d="M60.1547 75.7237H69.129V87.3312C69.129 89.0552 66.283 94.5229 60.1547 94.5229V75.7237Z" fill="#DBA986"/>
<path d="M60.1547 39.1978C73.3883 39.1978 75.3486 48.7654 75.3486 60.5676C75.3486 72.6537 65.1742 81.937 60.1547 81.937V39.1978Z" fill="#DBBBA2"/>
<path d="M75.646 58.8521C76.5772 55.3723 77.8517 55.3723 78.3907 56.2546C78.9297 57.1369 77.0673 60.5677 77.0184 63.3613C76.9695 66.1553 76.1405 66.5762 75.1088 65.5568C74.0776 64.5379 75.646 58.8521 75.646 58.8521Z" fill="#EBCCAF"/>
<path d="M73.0173 89.9546C72.2527 89.4302 71.5163 88.8599 70.8037 88.2376L73.2743 89.6271L73.0173 89.9546Z" fill="#64988E"/>
<path d="M62.6049 103.238L60.1547 94.523C66.283 94.523 69.129 89.0553 69.129 87.3313V87.296L70.8037 88.2378C71.5163 88.8601 72.2527 89.4303 73.0173 89.9548L62.6049 103.238Z" fill="#BFBCB8"/>
<path d="M60.1547 94.5229L68.977 87.2105L69.129 87.296V87.3312C69.129 89.0552 66.283 94.5229 60.1547 94.5229Z" fill="#BC9271"/>
<path d="M69.129 86.5868L73.2742 89.6271L62.6049 102.456L60.1547 94.5228L69.129 86.5868Z" fill="#F7F5F5"/>
<path d="M60.1547 73.1892C61.6909 73.1892 62.2207 73.1892 65.0552 73.1892C65.0552 73.1892 62.3542 71.8557 61.3732 71.849C60.7024 71.8442 60.643 72.2765 60.1547 72.2765V73.1892Z" fill="#CD4C69"/>
<path d="M60.1547 75.1283C62.4859 75.1283 62.6503 74.1588 64.1412 73.574C64.7749 73.3258 65.0552 73.1892 65.0552 73.1892H60.1547V75.1283Z" fill="#A22545"/>
<path d="M75.0352 65.2505C75.0352 65.6991 75.3987 66.0623 75.8469 66.0623C76.2951 66.0623 76.6587 65.6991 76.6587 65.2505C76.6587 64.8023 76.2951 64.4387 75.8469 64.4387C75.3987 64.4387 75.0352 64.8023 75.0352 65.2505Z" fill="#CD4C69"/>
<path d="M59.13 106.212C59.13 106.739 58.7025 107.166 58.1759 107.166C57.6488 107.166 57.2218 106.739 57.2218 106.212C57.2218 105.685 57.6488 105.258 58.1759 105.258C58.7025 105.258 59.13 105.685 59.13 106.212Z" fill="#534E50"/>
<path d="M59.13 111.886C59.13 112.413 58.7025 112.84 58.1759 112.84C57.6488 112.84 57.2218 112.413 57.2218 111.886C57.2218 111.359 57.6488 110.932 58.1759 110.932C58.7025 110.932 59.13 111.359 59.13 111.886Z" fill="#534E50"/>
<path d="M59.13 117.56C59.13 118.087 58.7025 118.514 58.1759 118.514C57.6488 118.514 57.2218 118.087 57.2218 117.56C57.2218 117.033 57.6488 116.606 58.1759 116.606C58.7025 116.606 59.13 117.033 59.13 117.56Z" fill="#534E50"/>
<path d="M60.1546 31.111C51.6263 31.111 45.9554 34.8327 44.3288 41.5996C41.979 51.3743 44.9502 60.6434 45.2657 61.5288C45.2657 61.5288 44.6514 58.2535 46.4714 54.2229C46.0982 56.7552 46.1916 58.6524 46.1916 58.6524C46.1916 58.6524 54.1008 56.5489 60.1546 52.7158V31.111Z" fill="#631E1C"/>
<path d="M66.714 45.409C69.2656 46.5588 71.4123 48.6142 73.2742 51.9745C75.7866 56.5084 75.0436 61.5288 75.0436 61.5288C75.3591 60.6434 78.3303 51.3743 75.981 41.5996C74.3543 34.8327 68.683 31.111 60.1547 31.111V52.7158C63.2942 50.7282 65.9353 48.2757 66.714 45.409Z" fill="#4D1917"/>
</g>
</svg>

<?xml version="1.0" encoding="UTF-8" standalone="no"?>
<svg width="120" xmlns="http://www.w3.org/2000/svg" fill="none" viewBox="0 0 120 120" height="120">
 <mask id="mask0" mask-type="alpha" height="120" width="120" y="0" x="0" maskUnits="userSpaceOnUse">
  <path d="m120 60c0 33.137-26.863 60-60 60s-60-26.863-60-60 26.863-60 60-60 60 26.863 60 60z" fill="#76B2A4"/>
 </mask>
 <g mask="url(#mask0)">
  <circle cy="60" cx="60" r="60" fill="#EF3F51"/>
  <path d="m60.155 31.111c-16.121 0-20.283 11.547-19.944 24.652 0.34 13.103-1.651 23.559-1.651 23.559l21.595 0.159v-48.37z" fill="#431616"/>
  <path d="m51.332 86.475c-4.705 5-10.411 7.306-18.517 8.483-9.757 1.416-11.037 10.552-11.037 13.092v11.95h38.377v-33.525h-8.823z" fill="#ECEBE9"/>
  <path d="m60.155 75.724h-8.975v11.607c0 1.724 2.846 7.192 8.975 7.192v-18.799z" fill="#E9BA98"/>
  <path d="m60.155 39.198c-13.234 0-15.194 9.567-15.194 21.37 0 12.086 10.174 21.369 15.194 21.369v-42.739z" fill="#EBCCAF"/>
  <path d="m44.664 58.852c-0.932-3.48-2.206-3.48-2.745-2.597-0.539 0.882 1.323 4.313 1.372 7.106 0.049 2.794 0.878 3.215 1.909 2.196 1.032-1.019-0.536-6.705-0.536-6.705z" fill="#EBCCAF"/>
  <path d="m47.292 89.955l-0.257-0.328 0.267 0.321c-0.003 0.002-0.007 0.004-0.01 0.007z" fill="#64988E"/>
  <path d="m57.704 103.24l-10.412-13.285c0.003-0.002 0.007-0.005 0.01-0.007l10.402 12.512 2.451-7.937-2.451 8.717z" fill="#CBC8C4"/>
  <path d="m51.18 86.587l-4.145 3.04 10.669 12.833 2.451-7.937-8.975-7.936z" fill="#F7F5F5"/>
  <path d="m60.155 73.189h-4.901s2.702-1.333 3.682-1.34c0.671-0.005 0.73 0.427 1.219 0.427v0.913z" fill="#E3527C"/>
  <path d="m60.155 75.128c-2.331 0-2.496-0.969-3.987-1.554-0.634-0.248-0.914-0.385-0.914-0.385h4.901v1.939z" fill="#AF2751"/>
  <path d="m45.274 65.25c0 0.449-0.363 0.812-0.812 0.812-0.448 0-0.811-0.363-0.811-0.812 0-0.448 0.363-0.811 0.811-0.811 0.449 0 0.812 0.363 0.812 0.811z" fill="#CD4C69"/>
  <path d="m60.155 31.111c16.12 0 20.282 11.547 19.943 24.652-0.339 13.103 1.652 23.559 1.652 23.559l-21.595 0.159v-48.37z" fill="#381514"/>
  <path d="m68.977 86.475c4.705 5 10.411 7.306 18.518 8.483 9.757 1.416 11.037 10.552 11.037 13.092v11.95h-38.377v-33.525h8.822z" fill="#DFDEDB"/>
  <path d="m60.155 75.724h8.974v11.607c0 1.724-2.846 7.192-8.974 7.192v-18.799z" fill="#DBA986"/>
  <path d="m60.155 39.198c13.233 0 15.194 9.567 15.194 21.37 0 12.086-10.175 21.369-15.194 21.369v-42.739z" fill="#DBBBA2"/>
  <path d="m75.646 58.852c0.931-3.48 2.206-3.48 2.745-2.597 0.539 0.882-1.324 4.313-1.373 7.106-0.048 2.794-0.878 3.215-1.909 2.196s0.537-6.705 0.537-6.705z" fill="#EBCCAF"/>
  <path d="m73.017 89.955c-0.764-0.525-1.501-1.095-2.213-1.717l2.47 1.389-0.257 0.328z" fill="#64988E"/>
  <path d="m62.605 103.24l-2.45-8.717c6.128 0 8.974-5.468 8.974-7.192v-0.035l1.675 0.942c0.712 0.622 1.449 1.192 2.213 1.717l-10.412 13.285z" fill="#BFBCB8"/>
  <path d="m60.155 94.523l8.822-7.313 0.152 0.086v0.035c0 1.724-2.846 7.192-8.974 7.192z" fill="#BC9271"/>
  <path d="m69.129 86.587l4.145 3.04-10.669 12.833-2.45-7.937 8.974-7.936z" fill="#F7F5F5"/>
  <path d="m60.155 73.189h4.9s-2.701-1.333-3.682-1.34c-0.671-0.005-0.73 0.427-1.218 0.427v0.913z" fill="#CD4C69"/>
  <path d="m60.155 75.128c2.331 0 2.495-0.969 3.986-1.554 0.634-0.248 0.914-0.385 0.914-0.385h-4.9v1.939z" fill="#A22545"/>
  <path d="m75.035 65.25c0 0.449 0.364 0.812 0.812 0.812s0.812-0.363 0.812-0.812c0-0.448-0.364-0.811-0.812-0.811s-0.812 0.363-0.812 0.811z" fill="#CD4C69"/>
  <path d="m59.13 106.21c0 0.53-0.428 0.96-0.954 0.96-0.527 0-0.954-0.43-0.954-0.96s0.427-0.95 0.954-0.95c0.526 0 0.954 0.42 0.954 0.95z" fill="#534E50"/>
  <path d="m59.13 111.89c0 0.52-0.428 0.95-0.954 0.95-0.527 0-0.954-0.43-0.954-0.95 0-0.53 0.427-0.96 0.954-0.96 0.526 0 0.954 0.43 0.954 0.96z" fill="#534E50"/>
  <path d="m59.13 117.56c0 0.53-0.428 0.95-0.954 0.95-0.527 0-0.954-0.42-0.954-0.95s0.427-0.95 0.954-0.95c0.526 0 0.954 0.42 0.954 0.95z" fill="#534E50"/>
  <path d="m60.155 31.111c-8.529 0-14.2 3.722-15.826 10.489-2.35 9.774 0.621 19.043 0.937 19.929 0 0-0.615-3.275 1.205-7.306-0.373 2.532-0.279 4.429-0.279 4.429s7.909-2.103 13.963-5.936v-21.605z" fill="#631E1C"/>
  <path d="m66.714 45.409c2.552 1.15 4.698 3.205 6.56 6.565 2.513 4.534 1.77 9.555 1.77 9.555 0.315-0.886 3.286-10.155 0.937-19.929-1.627-6.767-7.298-10.489-15.826-10.489v21.605c3.139-1.988 5.78-4.44 6.559-7.307z" fill="#4D1917"/>
 </g>
</svg>
